sprites/clothes/train_hoodie.svg

<?xml version="1.0" encoding="UTF-8" standalone="no"?>
<svg
   xmlns:dc="http://purl.org/dc/elements/1.1/"
   xmlns:cc="http://creativecommons.org/ns#"
   xmlns:rdf="http://www.w3.org/1999/02/22-rdf-syntax-ns#"
   xmlns:svg="http://www.w3.org/2000/svg"
   xmlns="http://www.w3.org/2000/svg"
   xmlns:sodipodi="http://sodipodi.sourceforge.net/DTD/sodipodi-0.dtd"
   xmlns:inkscape="http://www.inkscape.org/namespaces/inkscape"
   version="1.1"
   id="svg837"
   width="95.84964"
   height="112.14081"
   viewBox="0 0 95.84964 112.14081"
   sodipodi:docname="train_hoodie.svg"
   inkscape:version="1.0 (4035a4fb49, 2020-05-01)">
  <metadata
     id="metadata843">
    <rdf:RDF>
      <cc:Work
         rdf:about="">
        <dc:format>image/svg+xml</dc:format>
        <dc:type
           rdf:resource="http://purl.org/dc/dcmitype/StillImage" />
        <dc:title></dc:title>
      </cc:Work>
    </rdf:RDF>
  </metadata>
  <defs
     id="defs841" />
  <sodipodi:namedview
     pagecolor="#ffffff"
     bordercolor="#666666"
     borderopacity="1"
     objecttolerance="10"
     gridtolerance="10"
     guidetolerance="10"
     inkscape:pageopacity="0"
     inkscape:pageshadow="2"
     inkscape:window-width="1920"
     inkscape:window-height="1001"
     id="namedview839"
     showgrid="false"
     inkscape:pagecheckerboard="true"
     fit-margin-top="0"
     fit-margin-left="0"
     fit-margin-right="0"
     fit-margin-bottom="0"
     inkscape:zoom="5.6568542"
     inkscape:cx="36.923847"
     inkscape:cy="49.691733"
     inkscape:window-x="-9"
     inkscape:window-y="-9"
     inkscape:window-maximized="1"
     inkscape:current-layer="layer2"
     inkscape:document-rotation="0" />
  <g
     sodipodi:insensitive="true"
     inkscape:groupmode="layer"
     id="layer1"
     inkscape:label="Original"
     transform="translate(23.595688,10.035324)">
    <g
       transform="matrix(3.7795276,0,0,3.7795276,-23.595688,-11.351606)"
       id="g5165"
       style="display:inline">
      <g
         inkscape:label="Layer 1"
         id="layer1-0"
         transform="translate(-84.473399,-131.83647)"
         style="display:inline" />
      <g
         transform="translate(-7.8954188,-28.530371)"
         id="layer3-1"
         inkscape:label="Color">
        <path
           style="opacity:1;fill:#ffffff;fill-opacity:1;stroke:none;stroke-width:1.2;stroke-linecap:butt;stroke-linejoin:miter;stroke-miterlimit:4;stroke-dasharray:none;stroke-opacity:1"
           d="m 27.061041,29.785424 c 1.635877,2.807358 5.322832,11.606913 4.074748,20.400364 -0.03749,2.612124 -0.419645,7.588671 -0.419645,8.244208 0,0 -4.428301,0.09989 -7.75866,0.03625 -3.330358,-0.06364 -5.855202,0.06737 -9.274746,0.06336 0.02949,-1.657652 -4.3393029,-4.790926 -1.209524,-8.343822 0,-5.167442 -0.342243,-10.519109 0.47247,-15.449778 0.254528,-4.326972 3.592849,-3.915283 5.918699,-5.659673 3.157556,0.338749 6.172492,0.221567 9.149884,0.922074 z"
           id="path831-5"
           inkscape:connector-curvature="0"
           sodipodi:nodetypes="ccczcccccc" />
        <path
           style="fill:#0276b1;fill-opacity:1;stroke:none;stroke-width:0.264583px;stroke-linecap:butt;stroke-linejoin:miter;stroke-opacity:1"
           d="m 16.725446,36.81488 c 0.260421,-2.556769 3.987942,-6.623181 3.987942,-6.623181 0,0 -4.511124,-0.378288 -5.879929,1.069079 -4.368124,4.618829 -2.360245,18.925011 -2.360245,18.925011 0,0 -4.5795761,2.614718 -4.1562481,4.060169 0.59027,2.01547 5.9800391,4.399895 6.4241051,2.696156 0.444066,-1.703739 1.28661,-13.276693 1.984375,-20.127234 z"
           id="path847"
           inkscape:connector-curvature="0"
           sodipodi:nodetypes="scscszs" />
        <path
           style="fill:#0276b1;fill-opacity:1;stroke:none;stroke-width:0.264583px;stroke-linecap:butt;stroke-linejoin:miter;stroke-opacity:1"
           d="m 27.061041,29.785424 c 0,0 2.289171,3.879041 2.043123,8.635854 -0.246048,4.756813 2.173364,14.126862 2.173364,14.126862 0,0 2.178654,-16.525137 -1.476976,-21.955536 -0.567383,-0.842841 -2.739511,-0.80718 -2.739511,-0.80718 z"
           id="path849"
           inkscape:connector-curvature="0"
           sodipodi:nodetypes="czcsc" />
      </g>
      <g
         transform="translate(-7.8954188,-28.530371)"
         id="layer2-2"
         inkscape:label="Re-ink"
         style="display:inline">
        <path
           sodipodi:nodetypes="cc"
           id="path905"
           d="m 15.306227,52.99312 c -0.423415,4.241926 -1.008993,2.928287 -1.094323,5.536486"
           style="fill:none;stroke:#000000;stroke-width:1.2;stroke-linecap:butt;stroke-linejoin:miter;stroke-miterlimit:4;stroke-dasharray:none;stroke-opacity:1" />
        <path
           style="opacity:1;fill:none;fill-opacity:1;stroke:#000000;stroke-width:1.2;stroke-linecap:butt;stroke-linejoin:miter;stroke-miterlimit:4;stroke-dasharray:none;stroke-opacity:1"
           d="m 28.94971,30.372591 c 0.955508,0.116443 2.429233,6.042953 2.71946,9.24064 0.470339,5.182141 -0.391642,12.934909 -1.638964,15.524046"
           id="path831"
           inkscape:connector-curvature="0"
           sodipodi:nodetypes="cac" />
        <path
           style="fill:none;stroke:#000000;stroke-width:1.2;stroke-linecap:butt;stroke-linejoin:miter;stroke-miterlimit:4;stroke-dasharray:none;stroke-opacity:1"
           d="m 16.394717,36.578645 c -1.648817,5.874613 0.179145,15.295667 -1.702701,18.200412 -1.273861,7.360232 -11.7741761,-1.890817 -2.218802,-4.593268 0,-5.167441 -0.342243,-10.519106 0.47247,-15.449777 0.254528,-4.326971 4.655246,-4.603503 7.181548,-4.677456"
           id="path856"
           inkscape:connector-curvature="0"
           sodipodi:nodetypes="ccccc" />
        <path
           style="fill:none;stroke:#000000;stroke-width:1.2;stroke-linecap:butt;stroke-linejoin:miter;stroke-miterlimit:4;stroke-dasharray:none;stroke-opacity:1"
           d="m 29.104165,38.421279 c -0.654058,4.302781 1.616289,12.790482 1.611979,20.008717"
           id="path858"
           inkscape:connector-curvature="0"
           sodipodi:nodetypes="cc" />
      </g>
    </g>
  </g>
  <g
     inkscape:groupmode="layer"
     id="layer2"
     inkscape:label="Re-Ink"
     style="display:inline"
     transform="translate(6.0028667,-0.63918115)">
    <path
       style="fill:#0033ff;fill-opacity:1;stroke:#000000;stroke-width:3.77953;stroke-linecap:butt;stroke-linejoin:miter;stroke-miterlimit:4;stroke-dasharray:none;stroke-opacity:1"
       d="m 13.907278,13.883647 c -3.000545,1.901906 -2.134901,57.07302 -2.134901,57.07302 -1.533667,14.715847 8.990578,10.597906 12.279076,17.510715 -0.38363,11.058135 -6.83498,16.168098 -4.169214,16.911068 26.948539,7.5108 52.37166,3.74885 56.432051,3.07863 3.979675,-0.65689 3.325824,-12.871175 4.550925,-17.041579 10.05555,-9.334942 6.764201,-28.512778 5.81,-42.941931 -0.521871,-7.815165 -2.704208,-23.341585 -2.704208,-23.341585 0,0 -3.828453,-18.8861606 -9.441594,-19.7381467 C 55.615409,2.5229912 69.284289,22.332623 54.157586,20.928321 35.934562,19.23657 43.868068,1.8927509 37.877019,2.5400149 25.55033,3.8717709 16.907823,11.981741 13.907278,13.883647 Z"
       id="path864"
       inkscape:connector-curvature="0"
       sodipodi:nodetypes="zccsscccsssz" />
    <path
       sodipodi:nodetypes="cc"
       style="fill:none;stroke:#000000;stroke-width:2.16103;stroke-linecap:butt;stroke-linejoin:miter;stroke-miterlimit:4;stroke-dasharray:none;stroke-opacity:1"
       d="M 27.751948,30.119161 24.051453,88.467382"
       id="path870"
       inkscape:connector-curvature="0" />
    <path
       sodipodi:nodetypes="cc"
       style="fill:none;stroke:#000000;stroke-width:2.3239;stroke-linecap:butt;stroke-linejoin:miter;stroke-miterlimit:4;stroke-dasharray:none;stroke-opacity:1"
       d="m 75.858383,31.59388 3.563865,61.043869"
       id="path872"
       inkscape:connector-curvature="0" />
    <path
       transform="matrix(0.4893069,0.72477403,-0.70528539,0.47614981,57.371568,-29.137548)"
       inkscape:transform-center-y="0.5737846"
       inkscape:transform-center-x="-0.15838427"
       d="m 70.564495,39.176713 -8.782592,3.810191 -6.337677,-7.175327 4.865692,-8.244787 9.344839,2.079768 z"
       inkscape:randomized="0"
       inkscape:rounded="0"
       inkscape:flatsided="true"
       sodipodi:arg2="1.1614666"
       sodipodi:arg1="0.53314811"
       sodipodi:r2="6.5883803"
       sodipodi:r1="8.1436863"
       sodipodi:cy="35.037708"
       sodipodi:cx="63.55106"
       sodipodi:sides="5"
       id="path953"
       style="opacity:1;fill:#660080;stroke-width:2;stroke-miterlimit:4;stroke-dasharray:none"
       sodipodi:type="star" />
    <g
       style="opacity:1"
       transform="matrix(0.29289323,0,0,0.29289322,71.420755,27.773676)"
       id="g945">
      <path
         fill="#a7a9ac"
         d="m -41.62508,44.095025 h 32 l -11,-17 h -10 z"
         id="path881" />
      <path
         fill="#58595b"
         d="m -38.62508,44.095025 h 26 l -10,-17 h -6 z"
         id="path883" />
      <path
         fill="#808285"
         d="m -35.62508,44.095025 h 20 l -9,-17 h -2 z"
         id="path885" />
      <path
         fill="#a7a9ac"
         d="m -15.62508,43.095025 a 1,1 0 0 1 -1,1 h -18 a 1,1 0 1 1 0,-2 h 18 a 1,1 0 0 1 1,1 z m -2,-4 a 1,1 0 0 1 -1,1 h -14 a 1,1 0 1 1 0,-2 h 14 a 1,1 0 0 1 1,1 z"
         id="path887" />
      <path
         fill="#58595b"
         d="m -16.54908,33.395026 -4.076,-6.300001 h -10 l -4.076,6.300001 c 1.889,2.516999 4.798,4.698999 9.076,4.698999 4.277,0 7.188,-2.183 9.076,-4.698999 z"
         id="path889" />
      <path
         fill="#a7a9ac"
         d="m -25.62508,8.0950255 c -9,0 -12,3.0000005 -12,8.9999995 v 8 c 0,1.999 3,11 12,11 9,0 12,-9.001 12,-11 v -8 c 0,-5.999999 -3,-8.9999995 -12,-8.9999995 z"
         id="path891" />
      <path
         fill="#e6e7e8"
         d="m -35.62508,19.095025 c 0,-8.999999 4.477,-9.9999995 10,-9.9999995 5.523,0 10,1.0000005 10,9.9999995 0,6 -4.477,11 -10,11 -5.523,-0.001 -10,-5 -10,-11 z"
         id="path893" />
      <path
         fill="#ffac33"
         d="m -25.62508,30.094025 c 1.642,0 3.185,-0.45 4.553,-1.228 -0.783,-1.042 -2.523,-1.771 -4.553,-1.771 -2.03,0 -3.769,0.729 -4.552,1.772 1.366,0.777 2.911,1.227 4.552,1.227 z"
         id="path895" />
      <path
         d="m -24.62508,13.092026 v 4.965 c 3.488,-0.232 6,-1.621001 6,-2.463 v -1.666 c 0,-0.791 -3.692,-0.838001 -6,-0.836 z m -2,0 c -2.308,-0.002 -6,0.044 -6,0.836 v 1.667 c 0,0.841999 2.512,2.230999 6,2.462999 z"
         fill="#55acee"
         id="path897" />
      <path
         fill="#226699"
         d="m -37.62508,18.095025 c 0,0 0,3 4,9 0,0 -4,-2 -4,-6 z m 24,0 c 0,0 0,3 -4,9 0,0 4,-2 4,-6 z"
         id="path899" />
    </g>
    <path
       id="path961"
       d="m 30.059579,108.77106 c 5.715158,-5.43701 3.978032,-14.286609 3.889087,-19.445435 10.308208,-2.55417 23.113923,-1.055965 33.057242,-2.12132 3.052743,7.008367 3.029367,15.161455 3.535534,22.627415"
       style="fill:none;stroke:#000000;stroke-width:1px;stroke-linecap:butt;stroke-linejoin:miter;stroke-opacity:1" />
  </g>
</svg>

<?xml version="1.0" encoding="UTF-8" standalone="no"?>
<!DOCTYPE svg PUBLIC "-//W3C//DTD SVG 1.1//EN" "http://www.w3.org/Graphics/SVG/1.1/DTD/svg11.dtd">
<svg width="100%" height="100%" viewBox="0 0 96 113" version="1.1" xmlns="http://www.w3.org/2000/svg" xmlns:xlink="http://www.w3.org/1999/xlink" xml:space="preserve" xmlns:serif="http://www.serif.com/" style="fill-rule:evenodd;clip-rule:evenodd;">
    <g id="Re-Ink" transform="matrix(1,0,0,1,6.00287,-0.639181)">
        <path id="path864" d="M13.907,13.884C10.907,15.786 11.772,70.957 11.772,70.957C10.239,85.673 20.763,81.555 24.051,88.467C23.668,99.526 17.216,104.635 19.882,105.378C46.831,112.889 72.254,109.127 76.314,108.457C80.294,107.8 79.64,95.586 80.865,91.416C90.921,82.081 87.629,62.903 86.675,48.474C86.153,40.658 83.971,25.132 83.971,25.132C83.971,25.132 80.143,6.246 74.529,5.394C55.615,2.523 69.284,22.333 54.158,20.928C35.935,19.237 43.868,1.893 37.877,2.54C25.55,3.872 16.908,11.982 13.907,13.884Z" style="fill:rgb(0,51,255);fill-rule:nonzero;stroke:black;stroke-width:3.78px;"/>
        <path id="path870" d="M27.752,30.119L24.051,88.467" style="fill:none;fill-rule:nonzero;stroke:black;stroke-width:2.16px;"/>
        <path id="path872" d="M75.858,31.594L79.422,92.638" style="fill:none;fill-rule:nonzero;stroke:black;stroke-width:2.32px;"/>
        <g id="path953" transform="matrix(0.489307,0.724774,-0.705285,0.47615,57.3716,-29.1375)">
            <path d="M70.564,39.177L61.782,42.987L55.444,35.812L60.31,27.567L69.655,29.647L70.564,39.177Z" style="fill:rgb(102,0,128);fill-rule:nonzero;"/>
        </g>
        <g id="g945" transform="matrix(0.292893,0,0,0.292893,71.4208,27.7737)">
            <path id="path881" d="M-41.625,44.095L-9.625,44.095L-20.625,27.095L-30.625,27.095L-41.625,44.095Z" style="fill:rgb(167,169,172);fill-rule:nonzero;"/>
            <path id="path883" d="M-38.625,44.095L-12.625,44.095L-22.625,27.095L-28.625,27.095L-38.625,44.095Z" style="fill:rgb(88,89,91);fill-rule:nonzero;"/>
            <path id="path885" d="M-35.625,44.095L-15.625,44.095L-24.625,27.095L-26.625,27.095L-35.625,44.095Z" style="fill:rgb(128,130,133);fill-rule:nonzero;"/>
            <path id="path887" d="M-15.625,43.095C-15.625,43.644 -16.076,44.095 -16.625,44.095L-34.625,44.095C-35.174,44.095 -35.625,43.644 -35.625,43.095C-35.625,42.546 -35.174,42.095 -34.625,42.095L-16.625,42.095C-16.076,42.095 -15.625,42.546 -15.625,43.095ZM-17.625,39.095C-17.625,39.644 -18.076,40.095 -18.625,40.095L-32.625,40.095C-33.174,40.095 -33.625,39.644 -33.625,39.095C-33.625,38.546 -33.174,38.095 -32.625,38.095L-18.625,38.095C-18.076,38.095 -17.625,38.546 -17.625,39.095Z" style="fill:rgb(167,169,172);fill-rule:nonzero;"/>
            <path id="path889" d="M-16.549,33.395L-20.625,27.095L-30.625,27.095L-34.701,33.395C-32.812,35.912 -29.903,38.094 -25.625,38.094C-21.348,38.094 -18.437,35.911 -16.549,33.395Z" style="fill:rgb(88,89,91);fill-rule:nonzero;"/>
            <path id="path891" d="M-25.625,8.095C-34.625,8.095 -37.625,11.095 -37.625,17.095L-37.625,25.095C-37.625,27.094 -34.625,36.095 -25.625,36.095C-16.625,36.095 -13.625,27.094 -13.625,25.095L-13.625,17.095C-13.625,11.095 -16.625,8.095 -25.625,8.095Z" style="fill:rgb(167,169,172);fill-rule:nonzero;"/>
            <path id="path893" d="M-35.625,19.095C-35.625,10.095 -31.148,9.095 -25.625,9.095C-20.102,9.095 -15.625,10.095 -15.625,19.095C-15.625,25.095 -20.102,30.095 -25.625,30.095C-31.148,30.094 -35.625,25.095 -35.625,19.095Z" style="fill:rgb(230,231,232);fill-rule:nonzero;"/>
            <path id="path895" d="M-25.625,30.094C-23.983,30.094 -22.44,29.644 -21.072,28.866C-21.855,27.824 -23.595,27.095 -25.625,27.095C-27.655,27.095 -29.394,27.824 -30.177,28.867C-28.811,29.644 -27.266,30.094 -25.625,30.094Z" style="fill:rgb(255,172,51);fill-rule:nonzero;"/>
            <path id="path897" d="M-24.625,13.092L-24.625,18.057C-21.137,17.825 -18.625,16.436 -18.625,15.594L-18.625,13.928C-18.625,13.137 -22.317,13.09 -24.625,13.092ZM-26.625,13.092C-28.933,13.09 -32.625,13.136 -32.625,13.928L-32.625,15.595C-32.625,16.437 -30.113,17.826 -26.625,18.058L-26.625,13.092Z" style="fill:rgb(85,172,238);fill-rule:nonzero;"/>
            <path id="path899" d="M-37.625,18.095C-37.625,18.095 -37.625,21.095 -33.625,27.095C-33.625,27.095 -37.625,25.095 -37.625,21.095L-37.625,18.095ZM-13.625,18.095C-13.625,18.095 -13.625,21.095 -17.625,27.095C-17.625,27.095 -13.625,25.095 -13.625,21.095L-13.625,18.095Z" style="fill:rgb(34,102,153);fill-rule:nonzero;"/>
        </g>
        <path id="path961" d="M30.06,108.771C35.775,103.334 34.038,94.484 33.949,89.326C44.257,86.771 57.063,88.27 67.006,87.204C70.059,94.213 70.035,102.366 70.541,109.832" style="fill:none;fill-rule:nonzero;stroke:black;stroke-width:1px;"/>
    </g>
</svg>
